packages/icons/svgs/duotone/Source=star.svg

<svg width="24" height="24" viewBox="0 0 24 24" fill="none" xmlns="http://www.w3.org/2000/svg">
<path fill-rule="evenodd" clip-rule="evenodd" d="M12 1.48999C12.3806 1.48999 12.7282 1.70606 12.8967 2.04737L15.754 7.83597L22.1438 8.76438C22.5205 8.81911 22.8334 9.08295 22.951 9.44496C23.0687 9.80697 22.9706 10.2044 22.698 10.4701L18.0745 14.9771L19.1656 21.341C19.2299 21.7161 19.0757 22.0953 18.7678 22.319C18.4599 22.5427 18.0517 22.5723 17.7148 22.3952L12 19.3917L6.28523 22.3952C5.94831 22.5723 5.54009 22.5427 5.23218 22.319C4.92427 22.0953 4.77006 21.7161 4.83438 21.341L5.92554 14.9771L1.30197 10.4701C1.02941 10.2044 0.931317 9.80697 1.04895 9.44496C1.16658 9.08295 1.47953 8.81911 1.85621 8.76438L8.24598 7.83597L11.1033 2.04737C11.2718 1.70606 11.6194 1.48999 12 1.48999ZM12 4.74924L9.80671 9.19261C9.66103 9.48773 9.37948 9.69228 9.05379 9.7396L4.14893 10.4523L7.69803 13.9119C7.93369 14.1416 8.04123 14.4726 7.98562 14.797L7.14796 19.6824L11.5348 17.3768C11.826 17.2237 12.174 17.2237 12.4652 17.3768L16.852 19.6824L16.0144 14.797C15.9588 14.4726 16.0663 14.1416 16.302 13.9119L19.8511 10.4523L14.9462 9.7396C14.6205 9.69228 14.339 9.48773 14.1933 9.19261L12 4.74924Z" fill="black"/>
</svg>

<svg xmlns="http://www.w3.org/2000/svg" width="24" height="24" viewBox="0 0 24 24"><path fill-rule="evenodd" d="M12 1.49a1 1 0 0 1 .897.557l2.857 5.789 6.39.928a1 1 0 0 1 .554 1.706l-4.623 4.507 1.09 6.364a1 1 0 0 1-1.45 1.054L12 19.392l-5.715 3.003a1 1 0 0 1-1.45-1.054l1.09-6.364-4.623-4.507a1 1 0 0 1 .554-1.706l6.39-.928 2.857-5.789A1 1 0 0 1 12 1.49Zm0 3.26L9.807 9.192a1 1 0 0 1-.753.547l-4.905.712 3.549 3.46a1 1 0 0 1 .288.885l-.838 4.885 4.387-2.305a1 1 0 0 1 .93 0l4.387 2.305-.838-4.885a1 1 0 0 1 .288-.885l3.55-3.46-4.906-.712a1 1 0 0 1-.753-.547L12 4.749Z" clip-rule="evenodd"/></svg>
